X:1
T:Regina coeli - Ortiz
T:#
%%score [ 1 2 3 4 ]
L:1/8
Q:1/4=200
M:none
K:F
V:1 treble nm="Soprano" snm="Soprano"
V:2 treble nm="Alto" snm="Alto"
V:3 treble-8 nm="Tenor" snm="Tenor"
V:4 bass nm="Bass" snm="Bass"
V:1
"^Regina coeli""^Diego Ortiz\n(c.1510-1570)" F8 G8 | F8 (G4 A4- | A4 B4) c8 | (A4 B4 c8) | %4
w: Re- gi-|na coe\- *|* * li|lae\- * *|
 (B4 A4 G8) | F16 | z4 F4 G8 |[M:4/2] F8 G8- | G8 A8 | (B12 A4) | B8 A8 | F16 | G8 F8- | F16 | %14
w: ta\- * *|re,|Re- gi-|na coe\-|* li|lae\- *|ta- re,|Re-|gi- na||
 G8 A8- | A4 G4 F8 | E8 z4 c4- | c4 B4 A8 | G8 z8 | c12 B4 | (A4 G6 F2 F4-) | (F4 E4) F8 | z8 F8 | %23
w: coe- li|* lae- ta-|re. Al\-|* le- lu-|ia,|Al- le-|lu\- * * *|* * ia.|Qui-|
 c4 c4 d8 | (c6 B2) A4 G4 | (F12 E2 D2 | E2 F2 G8) F4- | (F4 E4) F8 | z8 F8 | c4 c4 d8 | %30
w: a quem me-|ru\- * i- sti|por\- * *|* * * ta\-|* * re,|qui-|a quem me-|
 (c6 B2 A4) G4 | F8 (F8- | F4 E4) (D6 E2) | (F2 G2 A6 G2 F4- | F4 E4) F8 | z16 | z8 c8 | (A8 G8) | %38
w: ru\- * * i-|sti por\-|* * ta\- *||* * re.||Al-|le\- *|
 (A4 c8 B4) | c8 z8 | c8 (A8- | A8 G8- | G8) (A8 | B8) A4 (c4- | c2 B2) (A6 G2)[Q:1/4=198] (F4- | %45
w: lu\- * *|ia,|al- le\-||* lu\-|* ia, al\-|* * le\- * lu\-|
[Q:1/4=197] F2[Q:1/4=196] E[Q:1/4=195]D[Q:1/4=194] E4)[Q:1/4=190] F8- |[Q:1/4=184] F16 | %47
w: * * * * ia.||
[Q:1/4=180] F24 ||"^Secunda pars" z16 | z16 | z16 | z16 | B8 c8 | d8 G4 c4- | c4 B4 A8 | G8 z8 | %56
w: |||||Re- sur-|re- xit re\-|* sur- re-|xit,|
 F8 G8 | A12 D4 | E4 G8 (F4- | F4 E4) D4 (d4- | d2 c2 B4) A4 c4- | c4 B8 A4- | A4 B4 (c6 B2 | %63
w: re- sur-|re- xit,|re- sur- re\-|* * xit, re\-|* * * sur- re\-|* xit, re\-|* sur- re\- *|
 A4 G2 F2 E2 F2 G4- | G2 F2 F8 E4 | F6 E2 D8) | C4 c4 F8 | (G8 F8-) | (F4 E4) F8 | z8 c8 | F8 G8 | %71
w: |||xit, si- cut|di\- *|* * xit,|si-|cut di-|
 F8 z8 | c12 A4 | (B6 c2 d4 c4- | c4 =B4 c6 _B2) | (A2 G2 A8 G4) | A4 F8 D4 | (E6 F2 G4 F2 E2 | %78
w: xit.|Al- le-|lu\- * * *|||ia, Al- le-|lu\- * * * *|
 D4 F8 E4) | F8 z8 | c8 F8 | G8 A8 | B4 (B6 A2 G4) | F8 z4 c4- | c4 F4 G8 | (A6 B2 c4) A4 | %86
w: |ia.|O- ra|pro no-|bis De\- * *|um, o\-|* ra pro|no\- * * bis|
 (B8 A8- | A4 G4) A8 | z4 F8 A4- | A4 B4 c4 (c4- | c2 B2 A6 G2 F4- | F4) E4 (D6 E2 | F12 E4) | %93
w: De\- *|* * um.|Al- le\-|* lu- ia, al\-||* le- lu\- *||
 F4 F8 A4- | A4 B4 c4 c4- | (c2 B2 A6 G2 F4- | F4) E4 (D6 E2 | F12 E4) |[Q:1/4=194] F16- | %99
w: ia, al- le\-|* lu- ia, al\-||* le- lu\- *||ia.|
[Q:1/4=184] F16 |[Q:1/4=174] F16 |[Q:1/4=170] F24 |] %102
w: |||
V:2
 z8 C8 | D8 C8 | D8 E8 | F12 E4 | F8 z8 | C8 D8 | C16- |[M:4/2] C8 (D8- | D4 E4) F8 | (D6 E2 F8) | %10
w: Re-|gi- na|coe- li|lae- ta-|re,|Re- gi-|na|* coe\-|* * li|lae\- * *|
 (D6 E2 F4 E4) | D8 z8 | z8 C8 | D12 C4 | (D4 E4) F8 | C8 D8 | G,4 G8 F4 | (E4 D4) C8 | z4 G8 F4 | %19
w: ta\- * * *|re,|Re-|gi- na|coe\- * li|lae- ta-|re. Al- le-|lu\- * ia,|Al- le-|
 (E8 D8 | C4 D4) C8 | z4 C8 B,4 | (A,4 G,2 A,2 B,4 F,2 G,2) | A,8 z8 | F,8 C8- | C4 C4 D8 | C16 | %27
w: lu\- *|* * ia,|Al- le-|lu\- * * * * *|ia.|Qui- a|* quem me-|ru-|
 (C12 B,4) | A,4 (G,2 A,2 B,4) (F,2 G,2) | A,8 z8 | F,8 C8- | C4 C4 D8 | C4 C8 B,4 | %33
w: i\- *|sti por\- * * ta\- *|re,|qui- a|* quem me-|ru- i- sti|
 (C2 B,2 A,2 G,2 F,8) | G,8 F,8 | z8 F8 | (D8 C8) | (D4 F8 E2 D2 | E4 C4 D8) | C8 z8 | z8 F8- | %41
w: por\- * * * *|ta- re.|Al-|le\- *|lu\- * * *||ia,|al\-|
 F8 (D8 | C6 D2 E4 F4) | (D6 E2 F8 | C8) D8 | z4 C4 (A,6 G,2 | A,4) (B,8 C4 | D8) C16 || z16 | %49
w: * le\-||lu\- * *|* ia,|al- le\- *|* lu\- *|* ia.||
 z8 B,8 | C8 D8 | G,4 G8 F4 | (G4 D4 F8- | F4 D4 E8) | F16 | z16 | z8 B,8 | C8 D8 | G,8 D8 | %59
w: Re-|sur- re-|xit, re- sur-|re\- * *||xit,||re-|sur- re-|xit, re-|
 C8 A,8 | B,8 (C6 D2 | E4) D4 F8 | F12 E4 | F4 (E2 D2 C6 B,2) | A,8 z4 C4 | F,8 G,8- | %66
w: sur- re-|xit, re\- *|* sur- re-|xit, re-|sur- re\- * * *|xit, si-|cut di\-|
 G,8 F,4 F4- | F4 E4 (D4 C2 B,2) | (C12 B,2 A,2 | B,8 A,6 B,2 | C4 D4 G,8) | A,4 F8 D4 | (E12 F4) | %73
w: * xit, si\-|* cut di\- * *||||xit. Al- le-|lu\- *|
 G16 | z4 G8 E4- | E4 (F8 E2 D2 | C2 B,2 C8 =B,4 | C8 D4 C4 | B,6 A,2) G,8 | z4 F4 B,8 | C8 D8- | %81
w: ia,|al- le\-|* lu\- * *|||* * ia.|O- ra|pro no\-|
 D4 E4 z4 F4 | (B,6 C2 D4) E4 | (F4 D4) E8 | (F12 E4) | F8 z8 | G8 E4 (F4- | F4 E2 D2 E4 F4) | %88
w: * bis, o-|ra * * pro|no\- * bis|De\- *|um,|o- ra pro||
 D8 C4 (F4- | F4 E2 D2 E4) F4 | F,4 (A,6 B,2 C4- | C4) (G,4 B,4 A,2 G,2 | F,8 G,8) | F,8 z4 C4 | %94
w: no- bis De\-|* * * * um.|Al- le\- * *|* lu\- * * *||ia, al-|
 D8 E4 F4 | F,4 (A,6 B,2) C4- | C4 G,4 z4 F,4 | (A,6 B,2 C8- | C4) B,4 A,4 D4 | C4 (D8 C4 | %100
w: le- lu- ia,|al- le\- * lu\-|* ia, al-|le\- * *|* lu- ia, al-|le- lu\- *|
 B,6 C2 D8) | C24 |] %102
w: |ia.|
V:3
 z16 | z16 | z16 | F8 G8 | F8 (G8 | A8) A8- | A8 G8 |[M:4/2][K:treble-8] A8 G8- | G8 F8 | %9
w: |||Re- gi-|na coe\-|* li|* lae\-|* ta\-|* re,|
 z4 B4 c8 | B8 c8 | d12 c4 | (B12 A4) | B4 B8 A4 | (G8 F6 G2 | A2 B2 c8 =B4 | c6 _B2 A8) | G8 z8 | %18
w: Re- gi-|na coe-|li lae-|ta\- *|re. Al- le-|lu\- * *|||ia,|
 c8 B4 (A4- | A4 G2 F2 G8 | A4 B4 A8) | G8 z4 F4 | c4 c4 d8 | c8 (B8 | A6 G2 F4) G4 | (A8 B8) | %26
w: Al- le- lu\-|||ia. Qui-|a quem me-|ru- i\-|* * * sti|por\- *|
 (G8 A8) | G8 z4 F4 | c4 c4 d8 | c8 B8 | (A6 G2 F4) G4 | (A12 B4 | G16) | A16 | z4 c4 (A8 | %35
w: ta\- *|re, qui-|a quem me-|ru- i-|sti * * por-|ta\- *||re.|Al- le\-|
 G8) (A4 c4- | c4 B2 A2) G8 | z8 c8 | (A8 G8) | (A4 c8 =B4) | c8 (F6 G2 | A2 B2 c8) =B4 | %42
w: * lu\- *|* * * ia,|al-|le\- *|lu\- * *|ia, al\- *|* * * le-|
 (c6 _B2 A4) F4 | G8 (A8 | c8) (F8 | G8) F8- | F16 | F24 || B8 c8 | d8 G4 B4- | B4 A4 (B2 c2 d4 | %51
w: lu\- * * ia,|Al- le\-|* lu\-|* ia.|||Re- sur-|re- xit, re\-|* sur- re\- * *|
 c6 B2 A8 | G4 B8 A2 G2 | A4 B4) c8 | z4 B4 c4 d4- | (d4 B4 c8 | A4 d6 c2 B4 | A12 B4 | %58
w: ||* * xit,|re- sur- re\-||||
 c8) (B6 A2 | G8) z4 F4 | G8 A8 | G4 B4 c8 | d8 G8 | z8 z4 c4 | F8 G8 | A4 c8 =B4 | c8 A8 | %67
w: * xit, *|* re-|sur- re-|xit, re- sur-|re- xit,|si-|cut di-|xit, si- cut|di- xit,|
 z4 c4 F8 | (G8 F8- | F4 E4) (F6 G2 | A8) z4 c4- | c4 A8 (B4 | c6 B2 A8) | G4 B8 c4 | d8 c8- | %75
w: si- cut|di\- *|* * xit. *|* Al\-|* le- lu\-||ia, al- le-|lu- ia,|
 c8 B8 | A8 F8 | (G12 A4) | z8 c8 | F8 G8 | A8 (B6 A2) | (G8 F8) | D8 z4 c4 | F4 F4 G8 | F8 z8 | %85
w: * al-|le- lu-|ia. *|O-|ra pro|no- bis *|De\- *|um, o-|ra pro no-|bis,|
 z8 f8 | B8 c8 | d8 c8 | (B4 A2 G2 A8) | F8 z4 F4 | (A6 B2 c4) A4 | G8 z4 F4 | (A6 B2 c8) | A16 | %94
w: o-|ra pro|no- bis|De\- * * *|um. Al-|le\- * * lu-|ia, al-|le\- * *|lu-|
 F8 z4 F4 | (A6 B2 c4) A4 | G4 c4 (B4 A2 G2 | F2 G2 A2 F2) G8 | F4 F8 A4- | A4 (B8 c4 | %100
w: ia, al-|le\- * * lu-|ia, al- le\- * *|* * * * lu-|ia, al- le\-|* lu\- *|
 d6 c2 B2 A2 B4- | B4 A2 G2) A16 |] %102
w: |* * * ia.|
V:4
 z16 | z16 | z8 C,8 | D,8 C,8 | D,8 (E,8 | F,8) (D,6 E,2) | (F,12 E,4) |[M:4/2] F,8 z8 | %8
w: ||Re-|gi- na|coe- li|* lae\- *|ta\- *|re,|
 z8 z4 F,4 | G,8 F,8 | G,8 A,8 | (B,12 A,4) | (G,4 _E,4 F,8) | B,,8 z8 | z8 z4 F,4- | F,4 E,4 D,8 | %16
w: Re-|gi- na|coe- li|lae\- *|ta\- * *|re.|Al\-|* le- lu-|
 C,8 z8 | z8 F,8- | F,4 E,4 D,8 | C,8 z8 | z8 z4 F,,4 | C,4 C,4 D,8 | C,8 (B,,8 | A,,8 B,,8) | %24
w: ia,|Al\-|* le- lu-|ia.|Qui-|a quem me-|ru- i\-||
 F,,4 (F,8 E,4) | F,8 (B,,8 | C,8) z4 F,,4 | C,4 C,4 D,8 | C,8 (B,,8 | A,,8 B,,8) | %30
w: sti por\- *|ta- re,|* qui-|a quem me-|ru- i\-||
 F,,4 (F,8 E,4) | (F,6 E,2 D,4 B,,4) | C,8 z8 | F,8 (D,8 | C,8) (D,4 F,4- | F,4 E,4 F,8 | %36
w: sti por\- *|ta\- * * *|re.|Al- le\-|* lu\- *||
 G,8) C,8 | z16 | z16 | F,8 D,8 | C,8 (D,6 E,2 | F,8 G,8) | C,8 z8 | z8 F,8- | F,8 (D,8 | %45
w: * ia,|||al- le\-|* lu\- *||ia,|al\-|* le\-|
 C,8) (D,6 E,2 | F,4 B,,8 A,,4 | B,,8 F,,16) || z16 | z16 | z8 B,,8 | C,8 D,8 | %52
w: * lu\- *||* ia.|||Re-|sur- re-|
 G,,4 G,4 (F,6 E,2) | D,8 C,8 | z8 F,8 | G,8 A,8 | D,8 G,8 | (F,6 E,2) D,8 | C,8 z4 B,,4 | %59
w: xit, re- sur\- *|re- xit,|re-|sur- re-|xit, re-|sur\- * re-|xit, re-|
 C,8 D,8 | G,,4 G,8 F,4 | (G,8 F,6 E,2) | D,8 C,8 | z4 G,4 C,8 | D,8 C,8 | z8 z4 G,4 | C,8 D,8 | %67
w: sur- re-|xit, re- sur-|re\- * *|* xit,|si- cut|di- xit,|si-|cut di-|
 C,8 z8 | C,8 F,,8 | G,,8 F,,4 F,4- | F,4 D,4 (E,8 | F,6 E,2 D,8) | C,8 z8 | z4 G,8 E,4 | %74
w: xit,|si- cut|si- xit. Al\-|* le- lu\-||ia,|al- le-|
 (F,4 G,4) C,8 | z4 F,4 (D,4 E,4) | (F,6 E,2 D,8) | C,8 z4 F,4 | B,,8 C,8 | D,8 (_E,6 D,2) | %80
w: lu\- * ia,|al- le\- *|lu\- * *|ia, O-|ra pro|no- bis *|
 C,8 B,,8 | z4 C,4 F,,8 | (G,,6 A,,2) B,,4 C,4 | D,8 C,8 | z8 C8 | F,16 | G,8 A,8 | B,8 (A,4 F,4) | %88
w: De- um,|o- ra|pro * no- bis|De- um,|o-|ra|pro no-|bis De\- *|
 (G,4 F,2 E,2 F,6 E,2 | D,8 C,4) F,,4 | z4 F,,4 (A,,6 B,,2 | C,8) D,8- | D,8 C,4 C,4 | %93
w: |* * um.|Al- le\- *|* lu\-|* ia, al-|
 (D,6 E,2 F,6 E,2 | D,2 C,2 D,4) C,4 F,,4 | z4 F,,4 (A,,6 B,,2 | C,8) D,8- | D,8 C,8 | %98
w: le\- * * *|* * * lu- ia,|al- le\- *|* lu\-|* ia,|
 z4 B,,4 (D,6 E,2 | F,4) (B,,8 A,,4 | B,,16) | F,,24 |] %102
w: al- le\- *|* lu\- *||ia.|

